X:455
T:P.M. Donald MacLean of Lewis 
C:Joe Buchanan's Scottish Tome - Page 080.0
I:080 0
C:P.M. Donald MacLeod
R:Pipe March
Z:Carl Allison
L:1/8
M:6/8
K:C
e|"Am"A>BG A3|"Em"e>dg e>dB|"Am"A>BA "G"(G2 B)|"G"(d2e) e>dB|
"Am"A>BG A3|"Em"e>dg e>dB| "G"G>Bg e>dB|"Am"A3 A2:|
g|"Am"(a2e) (e2g)|a>ee e>dB|A>BA "G"(G2 B)|(d2e) e>dB|
"Am"(a2e) (e2g)|a>ee e>dB| "G"G>Bg "G"e>dB|"Am"A3 (A2 g)|
"Am"(a2e) (e2g)|a>ee e>dB|A>BA "G"(G2 B)|"Am"(d2e) e>dB|
"Am"A>BG A3|"Em"e>dg e>dB| "G"G>Bg e>dB|"Am"A3 A2|]
|:e|"Am"A>ee d>ee|A>ee "Em"e>dB|"Am"A>BA "G"G>GG|B<de "Em"e>dB|
"Am"A>ee d>ee|A>ee e>dB| "G"G>Bg e>dB|"Am"A3 A2:|
e|"Am"(A2a) a>ga|"Em"g>ee e>dB|"Am"A>BA "G"(G2B)|"Am"(d2e) e>dB|
"Am"(A2a) a>ga|"Em"g>ee e>dB| "G"G>Bg e>dB|"Am"A3 (A2 e)|
"Am"(A2a) a>ga|"Em"g>ee e>dB|"Am"A>BA "G"(G2B)|"Am"(d2e) "Em"e>dB|
"Am"A>BG A3|"Em"e>dg e>dB| "G"G>Bg e>dB|"Am"A3 A2||

